X: 17993
T: Hughie Travers'
R: jig
M: 6/8
K: Gmajor
B|:dBA B2B|dBG ABA|GBd gfg|edB A2B|
dBA B2B|dBG ABA|GBd gfg|edB G2:|
* A|Bdd edd|gdd edB|GBd gfg|edB A3|
Bdd edd|gdd edB|GBd gfg|edB G2A|
Bdd edd|gdd edB|GBd gfg|edB A2B|
dBA B2B|dBG ABA|GBd gfg|edB G2||

